neru-light-classic/32x32/devices/input-tablet.svg

<?xml version="1.0" encoding="UTF-8" standalone="no"?>
<svg
   xmlns:dc="http://purl.org/dc/elements/1.1/"
   xmlns:cc="http://creativecommons.org/ns#"
   xmlns:rdf="http://www.w3.org/1999/02/22-rdf-syntax-ns#"
   xmlns:svg="http://www.w3.org/2000/svg"
   xmlns="http://www.w3.org/2000/svg"
   xmlns:sodipodi="http://sodipodi.sourceforge.net/DTD/sodipodi-0.dtd"
   xmlns:inkscape="http://www.inkscape.org/namespaces/inkscape"
   width="32"
   height="32"
   version="1"
   id="svg16"
   sodipodi:docname="input-tablet.svg"
   inkscape:version="0.92.2 2405546, 2018-03-11">
  <metadata
     id="metadata22">
    <rdf:RDF>
      <cc:Work
         rdf:about="">
        <dc:format>image/svg+xml</dc:format>
        <dc:type
           rdf:resource="http://purl.org/dc/dcmitype/StillImage" />
      </cc:Work>
    </rdf:RDF>
  </metadata>
  <defs
     id="defs20" />
  <sodipodi:namedview
     pagecolor="#ffffff"
     bordercolor="#666666"
     borderopacity="1"
     objecttolerance="10"
     gridtolerance="10"
     guidetolerance="10"
     inkscape:pageopacity="0"
     inkscape:pageshadow="2"
     inkscape:window-width="1680"
     inkscape:window-height="972"
     id="namedview18"
     showgrid="false"
     inkscape:zoom="7.375"
     inkscape:cx="-30.900009"
     inkscape:cy="16"
     inkscape:window-x="0"
     inkscape:window-y="0"
     inkscape:window-maximized="1"
     inkscape:current-layer="svg16" />
  <path
     style="opacity:1;fill:#666666;fill-opacity:1;fill-rule:evenodd;stroke:none;stroke-width:1.03534329;stroke-linecap:round;stroke-linejoin:bevel;stroke-miterlimit:4;stroke-dasharray:none;stroke-dashoffset:0;stroke-opacity:1"
     d="M 8.5429688 30.101562 L 24.527344 30.101562 C 27.615995 30.101563 30.101562 27.615995 30.101562 24.527344 L 30.101562 7.4726562 C 30.101563 4.3840054 27.615995 1.8984375 24.527344 1.8984375 L 8.5429688 1.8984375 L 8.5429688 30.101562 z "
     id="path4491" />
  <path
     style="opacity:1;fill:#8e8e8e;fill-opacity:1;fill-rule:evenodd;stroke:none;stroke-width:1.03534329;stroke-linecap:round;stroke-linejoin:bevel;stroke-miterlimit:4;stroke-dasharray:none;stroke-dashoffset:0;stroke-opacity:1"
     d="M 8.5429688 30.101562 L 8.5429688 1.8984375 L 7.4726562 1.8984375 C 4.3840054 1.8984375 1.8984375 4.3840054 1.8984375 7.4726562 L 1.8984375 24.527344 C 1.8984375 27.615995 4.3840054 30.101562 7.4726562 30.101562 L 8.5429688 30.101562 z "
     id="rect4497-3" />
  <path
     style="fill:#fec006;fill-opacity:1;stroke-width:1.16102076"
     inkscape:connector-curvature="0"
     d="m 17.386488,23.723962 v 2.068823 h 2.068822 l 5.225057,-5.225057 -2.068822,-2.068823 z m 9.123997,-4.979732 c 0.218828,-0.218818 0.218828,-0.56362 0,-0.782448 l -1.293029,-1.293029 c -0.218829,-0.218829 -0.56363,-0.218829 -0.782446,0 l -1.08083,1.087459 2.068823,2.068822 z"
     id="path12" />
</svg>

<svg xmlns="http://www.w3.org/2000/svg" width="32" height="32" version="1"><path d="M8.543 30.102h15.984a5.561 5.561 0 0 0 5.575-5.575V7.473a5.561 5.561 0 0 0-5.575-5.575H8.543v28.204z" fill="#666" fill-rule="evenodd"/><path d="M8.543 30.102V1.898h-1.07a5.561 5.561 0 0 0-5.575 5.575v17.054a5.561 5.561 0 0 0 5.575 5.575h1.07z" fill="#8e8e8e" fill-rule="evenodd"/><path d="M17.386 23.724v2.069h2.07l5.224-5.225-2.068-2.07zm9.124-4.98a.548.548 0 0 0 0-.782l-1.293-1.293a.548.548 0 0 0-.782 0l-1.08 1.087 2.068 2.069z" fill="#fec006"/></svg>
